assets/images/booking(white).svg

<?xml version="1.0"?>
<svg xmlns="http://www.w3.org/2000/svg" xmlns:xlink="http://www.w3.org/1999/xlink" xmlns:svgjs="http://svgjs.com/svgjs" version="1.1" width="512" height="512" x="0" y="0" viewBox="0 0 512 512" style="enable-background:new 0 0 512 512" xml:space="preserve" class=""><g><g xmlns="http://www.w3.org/2000/svg"><path d="m456.832 32.133h-41.232v-17.133c0-8.284-6.716-15-15-15s-15 6.716-15 15v17.133h-66.4v-17.133c0-8.284-6.716-15-15-15s-15 6.716-15 15v17.133h-66.4v-17.133c0-8.284-6.716-15-15-15s-15 6.716-15 15v17.133h-66.4v-17.133c0-8.284-6.716-15-15-15s-15 6.716-15 15v17.133h-41.234c-30.418 0-55.166 24.747-55.166 55.167v369.533c0 30.419 24.748 55.167 55.166 55.167h401.666c30.419 0 55.168-24.748 55.168-55.167v-369.533c0-30.42-24.749-55.167-55.168-55.167zm-401.666 30h41.234v17.134c0 8.284 6.716 15 15 15s15-6.716 15-15v-17.134h66.398v17.134c0 8.284 6.716 15 15 15s15-6.716 15-15v-17.134h66.4v17.134c0 8.284 6.716 15 15 15s15-6.716 15-15v-17.134h66.4v17.134c0 8.284 6.716 15 15 15s15-6.716 15-15v-17.134h41.232c13.879 0 25.17 11.29 25.17 25.167v41.233h-452v-41.233c0-13.877 11.29-25.167 25.166-25.167zm401.666 419.867h-401.666c-13.876 0-25.166-11.29-25.166-25.167v-298.3h452v298.3c0 13.877-11.291 25.167-25.168 25.167z" fill="#ffffff" data-original="#000000" class=""/><path d="m151.566 208.867h-64.267c-8.284 0-15 6.716-15 15v64.266c0 8.284 6.716 15 15 15h64.268c8.284 0 15-6.716 15-15v-64.266c-.001-8.284-6.716-15-15.001-15zm-15 64.266h-34.268v-34.266h34.268z" fill="#ffffff" data-original="#000000" class=""/><path d="m424.699 208.867h-64.266c-8.284 0-15 6.716-15 15v64.266c0 8.284 6.716 15 15 15h64.266c8.284 0 15-6.716 15-15v-64.266c0-8.284-6.716-15-15-15zm-15 64.266h-34.266v-34.266h34.266z" fill="#ffffff" data-original="#000000" class=""/><path d="m151.566 337.4h-64.267c-8.284 0-15 6.716-15 15v64.266c0 8.284 6.716 15 15 15h64.268c8.284 0 15-6.716 15-15v-64.266c-.001-8.284-6.716-15-15.001-15zm-15 64.266h-34.268v-34.266h34.268z" fill="#ffffff" data-original="#000000" class=""/><path d="m424.699 337.4h-64.266c-8.284 0-15 6.716-15 15v64.266c0 8.284 6.716 15 15 15h64.266c8.284 0 15-6.716 15-15v-64.266c0-8.284-6.716-15-15-15zm-15 64.266h-34.266v-34.266h34.266z" fill="#ffffff" data-original="#000000" class=""/><path d="m288.133 337.4h-64.268c-8.284 0-15 6.716-15 15v64.266c0 8.284 6.716 15 15 15h64.268c8.284 0 15-6.716 15-15v-64.266c0-8.284-6.716-15-15-15zm-15 64.266h-34.268v-34.266h34.268z" fill="#ffffff" data-original="#000000" class=""/><path d="m279.475 222.673-34.834 34.836-12.116-12.116c-5.857-5.858-15.355-5.858-21.213 0s-5.858 15.355 0 21.213l22.723 22.723c2.813 2.813 6.628 4.394 10.606 4.394 3.979 0 7.794-1.581 10.607-4.394l45.441-45.443c5.857-5.858 5.857-15.355 0-21.213-5.859-5.858-15.356-5.858-21.214 0z" fill="#ffffff" data-original="#000000" class=""/></g></g></svg>

<svg width="512" height="512" viewBox="0 0 512 512" fill="none" xmlns="http://www.w3.org/2000/svg">
<g clip-path="url(#clip0_1_4)">
<path d="M456.832 32.133H415.6V15C415.6 6.716 408.884 0 400.6 0C392.316 0 385.6 6.716 385.6 15V32.133H319.2V15C319.2 6.716 312.484 0 304.2 0C295.916 0 289.2 6.716 289.2 15V32.133H222.8V15C222.8 6.716 216.084 0 207.8 0C199.516 0 192.8 6.716 192.8 15V32.133H126.4V15C126.4 6.716 119.684 0 111.4 0C103.116 0 96.4 6.716 96.4 15V32.133H55.166C24.748 32.133 0 56.88 0 87.3V456.833C0 487.252 24.748 512 55.166 512H456.832C487.251 512 512 487.252 512 456.833V87.3C512 56.88 487.251 32.133 456.832 32.133V32.133ZM55.166 62.133H96.4V79.267C96.4 87.551 103.116 94.267 111.4 94.267C119.684 94.267 126.4 87.551 126.4 79.267V62.133H192.798V79.267C192.798 87.551 199.514 94.267 207.798 94.267C216.082 94.267 222.798 87.551 222.798 79.267V62.133H289.198V79.267C289.198 87.551 295.914 94.267 304.198 94.267C312.482 94.267 319.198 87.551 319.198 79.267V62.133H385.598V79.267C385.598 87.551 392.314 94.267 400.598 94.267C408.882 94.267 415.598 87.551 415.598 79.267V62.133H456.83C470.709 62.133 482 73.423 482 87.3V128.533H30V87.3C30 73.423 41.29 62.133 55.166 62.133V62.133ZM456.832 482H55.166C41.29 482 30 470.71 30 456.833V158.533H482V456.833C482 470.71 470.709 482 456.832 482Z" fill="#F2F2F2"/>
<path d="M151.566 208.867H87.299C79.015 208.867 72.299 215.583 72.299 223.867V288.133C72.299 296.417 79.015 303.133 87.299 303.133H151.567C159.851 303.133 166.567 296.417 166.567 288.133V223.867C166.566 215.583 159.851 208.867 151.566 208.867V208.867ZM136.566 273.133H102.298V238.867H136.566V273.133Z" fill="#F2F2F2"/>
<path d="M424.699 208.867H360.433C352.149 208.867 345.433 215.583 345.433 223.867V288.133C345.433 296.417 352.149 303.133 360.433 303.133H424.699C432.983 303.133 439.699 296.417 439.699 288.133V223.867C439.699 215.583 432.983 208.867 424.699 208.867V208.867ZM409.699 273.133H375.433V238.867H409.699V273.133Z" fill="#F2F2F2"/>
<path d="M151.566 337.4H87.299C79.015 337.4 72.299 344.116 72.299 352.4V416.666C72.299 424.95 79.015 431.666 87.299 431.666H151.567C159.851 431.666 166.567 424.95 166.567 416.666V352.4C166.566 344.116 159.851 337.4 151.566 337.4ZM136.566 401.666H102.298V367.4H136.566V401.666Z" fill="#F2F2F2"/>
<path d="M424.699 337.4H360.433C352.149 337.4 345.433 344.116 345.433 352.4V416.666C345.433 424.95 352.149 431.666 360.433 431.666H424.699C432.983 431.666 439.699 424.95 439.699 416.666V352.4C439.699 344.116 432.983 337.4 424.699 337.4ZM409.699 401.666H375.433V367.4H409.699V401.666Z" fill="#F2F2F2"/>
<path d="M288.133 337.4H223.865C215.581 337.4 208.865 344.116 208.865 352.4V416.666C208.865 424.95 215.581 431.666 223.865 431.666H288.133C296.417 431.666 303.133 424.95 303.133 416.666V352.4C303.133 344.116 296.417 337.4 288.133 337.4ZM273.133 401.666H238.865V367.4H273.133V401.666Z" fill="#F2F2F2"/>
<path d="M279.475 222.673L244.641 257.509L232.525 245.393C226.668 239.535 217.17 239.535 211.312 245.393C205.454 251.251 205.454 260.748 211.312 266.606L234.035 289.329C236.848 292.142 240.663 293.723 244.641 293.723C248.62 293.723 252.435 292.142 255.248 289.329L300.689 243.886C306.546 238.028 306.546 228.531 300.689 222.673C294.83 216.815 285.333 216.815 279.475 222.673V222.673Z" fill="#F2F2F2"/>
</g>
<defs>
<clipPath id="clip0_1_4">
<rect width="512" height="512" fill="white"/>
</clipPath>
</defs>
</svg>
